X:1
T:Spirit of Wisdom and Power
T:Spirit of Wisdom and Power
T:Felice de Giardini, 1769
T:Richard W. Adams, 2013
T:© 2013 Richard W. Adams. Reproduce or publish freely for Christian worship or devotions. Courtesy of the Cyber Hymnal™
C:Felice de Giardini, 1769
Z:© 2013 Richard W. Adams. Reproduce or publish freely for Christian worship or devotions.
Z:Courtesy of the Cyber Hymnal™
%%score ( 1 2 ) ( 3 4 )
L:1/8
Q:1/4=115
M:3/4
K:G
V:1 treble 
V:2 treble 
V:3 bass 
V:4 bass 
V:1
 [Gd]2 [DB]2 [DG]2 | [EA]2 [DG]2 [DF]2 | [DG]6 | [DG]2 [DA]2 [GB]2 | (cd [Ac]2) [GB]2 | [FA]6 | %6
w: 1.~Spir- it of|wis- dom and|power,|Pro- tect us|in * * this|hour,|
w: 2.~Dark- ness ad-|vanc- es a-|pace:|See, bold- ly|sin * * is|praised|
w: 3.~Pro- tect our|child- ren from|ill,|Be their de-|fend- * * er|still,|
 d2 B2 G2 | D6 | [FA]2 [GB]2 [Ac]2 | [GB]3 [FA] G2 | [FA]2 [GB]2 [Ac]2 | [GB]3 [FA] G2 | G2 B2 d2 | %13
w: Of dread- ful|strife;|When scoff- ing|lips sur- round|And right- eous-|ness con- found,|When fear and|
w: And good re-|viled;|O give us|hearts to fight|For ho- li-|ness and right,|En- a- bled|
w: Give them Your|light;|Im- merse them|in Your Word,|From them may|truth be heard,|Let them Your|
 [Gd]3 [Ge] [Gd]2 | [Ac]2 [GB]2 [FA]2 | G6 |] %16
w: hate a- bound,|Be our strong|tower.|
w: by Your might,|Wis- dom and|grace.|
w: Spir- it gird|To do Your|will.|
V:2
 x6 | x6 | x6 | x6 | F2 x4 | x6 | d2 B2 G2 | D6 | x6 | x4 G2 | x6 | x4 G2 | G2 B2 d2 | x6 | x6 | %15
 G6 |] %16
V:3
 [G,B,]2 [G,D]2 [B,,D]2 | [C,C]2 [D,B,]2 [D,A,]2 | [G,,B,]6 | [G,B,]2 [F,D]2 [G,D]2 | D4 [G,D]2 | %5
 [D,D]6 | D2 B,2 G,2 | D,6 | [D,D]2 [D,D]2 [D,D]2 | [G,D]3 [G,C] [G,B,]2 | [D,D]2 [D,D]2 [D,D]2 | %11
 [G,D]3 [G,C] [G,B,]2 | G,2 B,2 D2 | [G,B,]3 [G,C] [G,B,]2 | [C,E]2 [D,D]2 [D,C]2 | [G,,G,B,]6 |] %16
V:4
 x6 | x6 | x6 | x6 | (A,2 F,2) x2 | x6 | D2 B,2 G,2 | D,6 | x6 | x6 | x6 | x6 | G,2 B,2 D2 | x6 | %14
 x6 | x6 |] %16

